X:2956
T:Halling (G)
C:anon.
O:Norway
R:Halling
Z:Transcribed by Frank Nordberg - http://www.musicaviva.com
F:http://abc.musicaviva.com/tunes/norway/halling-03g/halling-03g-1.abc
M:2/4
L:1/8
Q:1/4=188
K:G 
"G".B2de|"C/F".c2dB|"D/F".G2AB|"C/F".G2LG2|
"G".B2de|"D7/F".c2dB|"G"G4|"G"D2z2:|
"G"d2de|"D/E".^c2.d2|"Em7".f2de|"D/E".^c2.d2|
"G"d2de|"D/E".^c2.d2|"G".f2d^c|"D/E"d4|
"G/A"d2de|"D/G".^c2.d2|"E7/F#".f2de|"Gm".^c2.d2|
"D/E"d2de|"Dmb5/Eb".^c2.d2|"Em".f2"A7"d^c|"D7sus4 C7"d4|
"G".B2de|"C/D".c2"D/E"dB|"Em/F".G2AB|"D/E".G2"C/D"LG2|
"G".B2de|"C/D".c2"D/E"dB|"Am7/F"G4|"G"G2z2|
"G7".B2de|"G7/C".c2dB|"A9/F".G2AB|"A9/B".G2LG2|
"G".B2de|"G/C".c2"D7"dB|"C/F"G4|"G"G2z2|]
W:
W:
W:  From Musica Viva - http://www.musicaviva.com
W:  the Internet center for free sheet music downloads.
